packages/foundations/assets/icons/functional/images/file/image_20.svg

<svg width="20" height="20" viewBox="0 0 20 20" fill="none" xmlns="http://www.w3.org/2000/svg">
<g clip-path="url(#clip0_185_960)">
<path fill-rule="evenodd" clip-rule="evenodd" d="M14.9999 2.99994C16.0543 2.99994 17.0057 3.93026 17.0001 4.99995V15C17.0001 16.0543 16.0522 17.0068 14.9999 17H4.99994C3.94558 17 3.00524 16.0992 2.99994 15V4.99995C2.99994 3.94559 3.9327 3.00168 4.99994 2.99994H14.9999ZM12.9999 11.414L10.707 13.7071C10.469 13.9451 10.1295 14.0455 9.80463 13.9807L7.07694 13.079L4.99994 14.117V15H14.9999V13.4142L12.9999 11.414ZM14.9999 4.99995H4.99994V11.881L6.55273 11.1055C6.75041 11.0067 6.97406 10.9767 7.18873 11.0179L9.72894 11.855L12.2928 9.29285C12.6834 8.90232 13.3165 8.90232 13.707 9.29285L14.9999 10.585V4.99995ZM7.49994 5.99995C8.32845 5.99995 8.99994 6.67157 8.99994 7.49995C8.99994 8.32834 8.32845 8.99995 7.49994 8.99995C6.67143 8.99995 5.99994 8.32834 5.99994 7.49995C5.99994 6.67157 6.67143 5.99995 7.49994 5.99995Z" fill="#1A1C1F"/>
</g>
<defs>
<clipPath id="clip0_185_960">
<rect width="20" height="20" fill="white"/>
</clipPath>
</defs>
</svg>

<svg xmlns="http://www.w3.org/2000/svg" width="20" height="20" fill="none"><g clip-path="url(#a)"><path fill="#1A1C1F" fill-rule="evenodd" d="M15 3c1.054 0 2.006.93 2 2v10c0 1.054-.948 2.007-2 2H5c-1.054 0-1.995-.9-2-2V5c0-1.054.933-1.998 2-2zm-2 8.414-2.293 2.293a1 1 0 0 1-.902.274l-2.728-.902L5 14.117V15h10v-1.586zM15 5H5v6.881l1.553-.776a1 1 0 0 1 .636-.087l2.54.837 2.564-2.562a1 1 0 0 1 1.414 0L15 10.585zM7.5 6a1.5 1.5 0 1 1 0 3 1.5 1.5 0 0 1 0-3" clip-rule="evenodd"/></g><defs><clipPath id="a"><path fill="#fff" d="M0 0h20v20H0z"/></clipPath></defs></svg>
